svg/black/game.svg

<svg xmlns="http://www.w3.org/2000/svg" width="32" height="32" viewBox="0 0 32 32">
  <path fill-rule="evenodd" d="M16,32 C7.163444,32 0,24.836556 0,16 C0,7.163444 7.163444,0 16,0 C24.836556,0 32,7.163444 32,16 C32,24.836556 24.836556,32 16,32 Z M15.5,5.5 C9.9771525,5.5 5.5,9.9771525 5.5,15.5 C5.5,21.0228475 9.9771525,25.5 15.5,25.5 L25.5,25.5 L25.5,15.5 C25.5,9.9771525 21.0228475,5.5 15.5,5.5 Z M21.203125,20.4842863 C19.8122549,22.0740553 17.7685011,23.078125 15.4902344,23.078125 C11.2995581,23.078125 7.90234375,19.6809107 7.90234375,15.4902344 C7.90234375,11.2995581 11.2995581,7.90234375 15.4902344,7.90234375 C19.2585509,7.90234375 22.3852847,10.6492856 22.9772666,14.25 L21.0481182,14.25 C20.4820574,11.7020454 18.2086341,9.796875 15.4902344,9.796875 C12.3458788,9.796875 9.796875,12.3458788 9.796875,15.4902344 C9.796875,18.6345899 12.3458788,21.1835938 15.4902344,21.1835938 C17.5915287,21.1835938 19.426944,20.0452302 20.4134207,18.3515628 L16.4765625,18.3515625 L16.4765625,16.4375 L23.1171875,16.4375 L23.1171875,23.078125 L21.203125,23.078125 L21.203125,20.4842863 Z"/>
</svg>

<svg xmlns="http://www.w3.org/2000/svg" width="32" height="32"><path fill-rule="evenodd" d="M16 32C7.163 32 0 24.837 0 16S7.163 0 16 0s16 7.163 16 16-7.163 16-16 16zm-.5-26.5c-5.523 0-10 4.477-10 10s4.477 10 10 10h10v-10c0-5.523-4.477-10-10-10zm5.703 14.984a7.588 7.588 0 1 1 1.774-6.234h-1.929a5.693 5.693 0 1 0-.635 4.102h-3.936v-1.915h6.64v6.641h-1.914v-2.594z"/></svg>
